X: 3
T: The Flower Of The Flock
R: reel
M: 4/4
L: 1/8
K: Gmaj
|:DEGA BG GG|cABG AGEG|DEGE B2 Be|1 dBAF ~G3E:|2 dBAF ~G3e|||~g3 e dGBG|~A3G AGfe|~g3 e d2 (3Bcd|eaag agef||~g3 e dGBG|AcBG AGEG|DEGE B2 Be|dBAF ~G3E||


Tune 585	Setting 24417

